X: 1
T: LANIGAN'S BALL -- JIG
B: Ryan's Mammoth Collection of Fiddle Tunes
R: jig
M: 6/8
L: 1/8
Z: Contributed 20010705002338 by John Chambers jmchambers:rcn.net
K: Em
uF \
| E2F G2A |.B2^A B^cd | D2E    F2G | AdB AFD \
| E2F G2A | B2^A B^cd | e2B {d}cBA | BBB E2 :|
|: uB \
| e2e g2g | fag fe^d | e2e g2g  | f^ef B2B \
| e2e g2g | fag fe^d | e2B cB^A | BBB  E2 :|
